src/client/web-contents/img/common/badge/badge_status_07.svg

<svg height="32" viewBox="0 0 48 32" width="48" xmlns="http://www.w3.org/2000/svg"><g fill="none" fill-rule="evenodd"><rect fill="#119ed7" height="32" rx="4" width="48"/><path d="m8.7 9.98v-1.68h9.38v1.68h-3.56v.54c0 2.6 1.96 4.7 4.04 5.34l-1.14 1.64c-1.48-.58-3.2-2.1-3.96-3.76-.52 1.74-2.44 3.6-4.24 4.26l-1.22-1.6c2.5-.92 4.4-3.2 4.4-5.82v-.6zm14.04 9.96h-2.04v-6.44h-2.88v-1.72h2.88v-4.78h2.04zm.4 4.36h-12.02v-5.58h2.04v3.94h9.98zm10.06-4.7-1.18 1.44c-1.26-.76-2.82-2.48-3.28-4.12-.42 1.74-1.94 3.66-3.44 4.56l-1.28-1.38c2.3-1.48 3.7-3.62 3.74-7.04h-3.1v-1.64h8.08v1.64h-2.98c.06 3.34 1.5 5.44 3.44 6.54zm2.7 4.38h-1.94v-7.5h-2.26v-1.7h2.26v-7.42h1.94zm3.5.84h-1.96v-17.82h1.96zm-8.3-14.72h-4.66v-1.66h4.66z" fill="#fff"/></g></svg>

<?xml version="1.0" encoding="UTF-8" standalone="no"?>
<svg width="48px" height="32px" viewBox="0 0 48 32" version="1.1" xmlns="http://www.w3.org/2000/svg" xmlns:xlink="http://www.w3.org/1999/xlink">
    <!-- Generator: Sketch 50.2 (55047) - http://www.bohemiancoding.com/sketch -->
    <title>graphic_badge_status_07</title>
    <desc>Created with Sketch.</desc>
    <defs></defs>
    <g id="Icon_Badge_Graphic" stroke="none" stroke-width="1" fill="none" fill-rule="evenodd">
        <g id="##Element/Badge/Status07">
            <rect id="Rectangle-2" fill="#119ED7" x="0" y="0" width="48" height="32" rx="4"></rect>
            <path d="M8.7,9.98 L8.7,8.3 L18.08,8.3 L18.08,9.98 L14.52,9.98 L14.52,10.52 C14.52,13.12 16.48,15.22 18.56,15.86 L17.42,17.5 C15.94,16.92 14.22,15.4 13.46,13.74 C12.94,15.48 11.02,17.34 9.22,18 L8,16.4 C10.5,15.48 12.4,13.2 12.4,10.58 L12.4,9.98 L8.7,9.98 Z M22.74,19.94 L20.7,19.94 L20.7,13.5 L17.82,13.5 L17.82,11.78 L20.7,11.78 L20.7,7 L22.74,7 L22.74,19.94 Z M23.14,24.3 L11.12,24.3 L11.12,18.72 L13.16,18.72 L13.16,22.66 L23.14,22.66 L23.14,24.3 Z M33.2,19.6 L32.02,21.04 C30.76,20.28 29.2,18.56 28.74,16.92 C28.32,18.66 26.8,20.58 25.3,21.48 L24.02,20.1 C26.32,18.62 27.72,16.48 27.76,13.06 L24.66,13.06 L24.66,11.42 L32.74,11.42 L32.74,13.06 L29.76,13.06 C29.82,16.4 31.26,18.5 33.2,19.6 Z M35.9,23.98 L33.96,23.98 L33.96,16.48 L31.7,16.48 L31.7,14.78 L33.96,14.78 L33.96,7.36 L35.9,7.36 L35.9,23.98 Z M39.4,24.82 L37.44,24.82 L37.44,7 L39.4,7 L39.4,24.82 Z M31.1,10.1 L26.44,10.1 L26.44,8.44 L31.1,8.44 L31.1,10.1 Z" id="전체" fill="#FFFFFF"></path>
        </g>
    </g>
</svg>
